front/src/Assets/image/edit.svg

<svg width="18" height="18" viewBox="0 0 18 18" fill="none" xmlns="http://www.w3.org/2000/svg">
<path fill-rule="evenodd" clip-rule="evenodd" d="M14.204 7.79619L16 6.00019C16.5453 5.45494 16.8179 5.18231 16.9636 4.88822C17.2409 4.32866 17.2409 3.67171 16.9636 3.11215C16.8179 2.81806 16.5453 2.54544 16 2.00019C15.4548 1.45494 15.1821 1.18231 14.888 1.03658C14.3285 0.759293 13.6715 0.759293 13.112 1.03658C12.8179 1.18231 12.5453 1.45494 12 2.00019L10.1814 3.81884C11.1452 5.46944 12.5314 6.845 14.204 7.79619ZM8.7269 5.2733L1.8564 12.1438C1.43134 12.5689 1.21881 12.7814 1.07907 13.0425C0.939336 13.3036 0.88039 13.5983 0.7625 14.1878L0.147104 17.2648C0.0805817 17.5974 0.0473206 17.7637 0.141929 17.8583C0.236537 17.9529 0.402842 17.9196 0.735452 17.8531L3.81243 17.2377C4.40189 17.1198 4.69661 17.0609 4.95771 16.9211C5.21881 16.7814 5.43134 16.5689 5.8564 16.1438L12.7458 9.25441C11.1241 8.23876 9.75244 6.87646 8.7269 5.2733Z" fill="#0066EA"/>
</svg>

<svg xmlns="http://www.w3.org/2000/svg" fill="none" viewBox="0 0 18 18">
  <path fill="#0066EA" fill-rule="evenodd" d="M14.204 7.796L16 6c.545-.545.818-.818.964-1.112a2 2 0 000-1.776C16.818 2.818 16.545 2.545 16 2c-.545-.545-.818-.818-1.112-.963a2 2 0 00-1.776 0c-.294.145-.567.418-1.112.963l-1.819 1.82a10.9 10.9 0 004.023 3.977zM8.727 5.273l-6.87 6.87c-.426.426-.638.638-.778.9-.14.26-.199.555-.317 1.145l-.615 3.077c-.066.332-.1.499-.005.593.095.095.26.062.593-.005l3.077-.615c.59-.118.885-.177 1.146-.317.26-.14.473-.352.898-.777l6.89-6.89a12.902 12.902 0 01-4.02-3.98z" clip-rule="evenodd"/>
</svg>
